X:365
T: Tom Hill's
S: "Ceol Rince na hEireann" 1/212
Z: B.Black
L: 1/8
M: C|
R: hornpipe
K: D
(3ABc|dcdf ecAF|G2 GB AFDf|g2 (3fgf edcd|(3efe (3dcB AGFA|
defd ceAF|GFGB AGFE|DdcB AGFE|1 (3DED CE D2 :|2 (3DED CE D3z||
e2 ef gfga|(3bag (3agf gfef|(3aga (3fgf edcd|\
(3efe (3dcB (3ABA FA|
defd ceAF|GFGB AGFE|DdcB AGFE|DFCE D2 :|
